img/website.svg

<svg id="Layer_1" data-name="Layer 1" xmlns="http://www.w3.org/2000/svg" viewBox="0 0 48 48"><defs><style>.cls-3{fill:red}</style></defs><rect x="1" y="1" width="46" height="46" rx="4" ry="4" fill="#fff"/><path d="M43 2a3 3 0 0 1 3 3v38a3 3 0 0 1-3 3H5a3 3 0 0 1-3-3V5a3 3 0 0 1 3-3h38m0-2H5a5 5 0 0 0-5 5v38a5 5 0 0 0 5 5h38a5 5 0 0 0 5-5V5a5 5 0 0 0-5-5z" fill="#f6a623"/><path class="cls-3" d="M5 5h38v38H5z"/><path class="cls-3" d="M42 6v36H6V6h36m2-2H4v40h40V4z"/><text transform="translate(12 36.61)" font-size="36" font-family="Roboto-Light,Roboto">C</text></svg>

<svg id="Layer_1" data-name="Layer 1" xmlns="http://www.w3.org/2000/svg" viewBox="0 0 48 48"><defs><style>.cls-1{fill:#fff;}.cls-2{fill:#f6a623;}.cls-3{fill:red;}.cls-4{font-size:36px;font-family:Roboto-Light, Roboto;}</style></defs><title>website</title><rect class="cls-1" x="1" y="1" width="46" height="46" rx="4" ry="4"/><path class="cls-2" d="M43,2a3,3,0,0,1,3,3V43a3,3,0,0,1-3,3H5a3,3,0,0,1-3-3V5A3,3,0,0,1,5,2H43m0-2H5A5,5,0,0,0,0,5V43a5,5,0,0,0,5,5H43a5,5,0,0,0,5-5V5a5,5,0,0,0-5-5Z"/><rect class="cls-3" x="5" y="5" width="38" height="38"/><path class="cls-3" d="M42,6V42H6V6H42m2-2H4V44H44V4Z"/><text class="cls-4" transform="translate(12 36.61)">C</text></svg>
